X: 21312
M: 6/8
L: 1/8
K: D
V: 1 name="5"
dcd e2f | d2f a3 | (ag).e (gf).d | fed cBA |\
(dc).d e2f | d2f a3 | (ag).e ABc | d3- d2 H:|
c/d/ |\
e2e dcB | ABc def | g2B fed | cde A2d |\
efe dcB | ABc def | gag fed | a3- "^D.C."a2 :|


